X: 1
T: In Walked Dalai
S: Lunasa - The Leitrim Equation (2009)
R: Hornpipe
M: 4/4
L: 1/8
Q: 1/4=130
Z: Michel Fontaine <mifon@wanadoo.fr> 2010-1-3
N: Last note suggests Locrian mode tune
K: C
Gc cB c2 Gc | c2 Gc fe dc | BG GB dG Bd | fe dc Bd fd |
ec cB c2 Gc | c2 Gc fe dc | Bd fd ef dc | BG AB c2 BA ||
Gc cB c2 Gc | c2 Gc fe dc | BG GB dG Bd | fe dc Bd fd |
ec cB c2 Gc | c2 Gc fe dc | Bd fd ef dc | BG AB c2 ef |]
gc' c'b c'2 gc' | c'2 gc' d'c' ba | bg g^f ~g3a | bc' d'b c'b ab |
gc' c'b c'2 gc' | e'c' gc' d'c' ba | b2 ac' bg =fd | g2 fd gf ed ||
eg c'b c'2 gc' | c'2 gc' d'c' ba | bg g^f ~g3a | bg c'g d'c' ba |
g=f dB c2 eg | c'2 bc' d'c' ba | b2 ac' bg fd | g2 fd gf dB |]

